images/51059559.svg

<?xml version="1.0" encoding="UTF-8"?>
<svg xmlns="http://www.w3.org/2000/svg" xmlns:xlink="http://www.w3.org/1999/xlink" width="300pt" height="300pt" viewBox="0 0 300 300" version="1.1">
<defs>
<g>
<symbol overflow="visible" id="glyph0-0">
<path style="stroke:none;" d="M 0.546875 1.9375 L 0.546875 -7.75 L 6.046875 -7.75 L 6.046875 1.9375 Z M 1.171875 1.328125 L 5.4375 1.328125 L 5.4375 -7.140625 L 1.171875 -7.140625 Z M 1.171875 1.328125 "/>
</symbol>
<symbol overflow="visible" id="glyph0-1">
<path style="stroke:none;" d="M 7.078125 -7.40625 L 7.078125 -6.25 C 6.710938 -6.59375 6.320312 -6.847656 5.90625 -7.015625 C 5.5 -7.179688 5.0625 -7.265625 4.59375 -7.265625 C 3.675781 -7.265625 2.972656 -6.984375 2.484375 -6.421875 C 2.003906 -5.867188 1.765625 -5.0625 1.765625 -4 C 1.765625 -2.945312 2.003906 -2.140625 2.484375 -1.578125 C 2.972656 -1.015625 3.675781 -0.734375 4.59375 -0.734375 C 5.0625 -0.734375 5.5 -0.816406 5.90625 -0.984375 C 6.320312 -1.148438 6.710938 -1.40625 7.078125 -1.75 L 7.078125 -0.625 C 6.703125 -0.363281 6.300781 -0.164062 5.875 -0.03125 C 5.457031 0.09375 5.007812 0.15625 4.53125 0.15625 C 3.320312 0.15625 2.367188 -0.210938 1.671875 -0.953125 C 0.972656 -1.703125 0.625 -2.71875 0.625 -4 C 0.625 -5.289062 0.972656 -6.304688 1.671875 -7.046875 C 2.367188 -7.796875 3.320312 -8.171875 4.53125 -8.171875 C 5.007812 -8.171875 5.460938 -8.101562 5.890625 -7.96875 C 6.316406 -7.84375 6.710938 -7.65625 7.078125 -7.40625 Z M 7.078125 -7.40625 "/>
</symbol>
<symbol overflow="visible" id="glyph0-2">
<path style="stroke:none;" d="M 1.03125 -8.359375 L 2.03125 -8.359375 L 2.03125 0 L 1.03125 0 Z M 1.03125 -8.359375 "/>
</symbol>
<symbol overflow="visible" id="glyph0-3">
<path style="stroke:none;" d="M 1.078125 -8.015625 L 2.546875 -8.015625 L 6.09375 -1.3125 L 6.09375 -8.015625 L 7.15625 -8.015625 L 7.15625 0 L 5.6875 0 L 2.125 -6.703125 L 2.125 0 L 1.078125 0 Z M 1.078125 -8.015625 "/>
</symbol>
<symbol overflow="visible" id="glyph0-4">
<path style="stroke:none;" d="M 1.078125 -8.015625 L 2.171875 -8.015625 L 2.171875 -4.734375 L 6.109375 -4.734375 L 6.109375 -8.015625 L 7.1875 -8.015625 L 7.1875 0 L 6.109375 0 L 6.109375 -3.8125 L 2.171875 -3.8125 L 2.171875 0 L 1.078125 0 Z M 1.078125 -8.015625 "/>
</symbol>
<symbol overflow="visible" id="glyph1-0">
<path style="stroke:none;" d="M 0.453125 1.59375 L 0.453125 -6.34375 L 4.953125 -6.34375 L 4.953125 1.59375 Z M 0.953125 1.09375 L 4.453125 1.09375 L 4.453125 -5.84375 L 0.953125 -5.84375 Z M 0.953125 1.09375 "/>
</symbol>
<symbol overflow="visible" id="glyph1-1">
<path style="stroke:none;" d="M 1.734375 -0.75 L 4.828125 -0.75 L 4.828125 0 L 0.65625 0 L 0.65625 -0.75 C 1 -1.09375 1.457031 -1.554688 2.03125 -2.140625 C 2.613281 -2.734375 2.984375 -3.113281 3.140625 -3.28125 C 3.421875 -3.601562 3.613281 -3.875 3.71875 -4.09375 C 3.832031 -4.320312 3.890625 -4.539062 3.890625 -4.75 C 3.890625 -5.101562 3.769531 -5.390625 3.53125 -5.609375 C 3.289062 -5.828125 2.972656 -5.9375 2.578125 -5.9375 C 2.296875 -5.9375 2 -5.882812 1.6875 -5.78125 C 1.382812 -5.6875 1.054688 -5.539062 0.703125 -5.34375 L 0.703125 -6.25 C 1.054688 -6.382812 1.390625 -6.488281 1.703125 -6.5625 C 2.015625 -6.644531 2.300781 -6.6875 2.5625 -6.6875 C 3.238281 -6.6875 3.78125 -6.515625 4.1875 -6.171875 C 4.59375 -5.828125 4.796875 -5.375 4.796875 -4.8125 C 4.796875 -4.539062 4.742188 -4.28125 4.640625 -4.03125 C 4.535156 -3.789062 4.351562 -3.507812 4.09375 -3.1875 C 4.019531 -3.101562 3.785156 -2.859375 3.390625 -2.453125 C 2.992188 -2.046875 2.441406 -1.476562 1.734375 -0.75 Z M 1.734375 -0.75 "/>
</symbol>
</g>
</defs>
<g id="surface13637">
<rect x="0" y="0" width="300" height="300" style="fill:rgb(100%,100%,100%);fill-opacity:1;stroke:none;"/>
<path style="fill:none;stroke-width:1.2;stroke-linecap:butt;stroke-linejoin:miter;stroke:rgb(0%,80%,0%);stroke-opacity:1;stroke-miterlimit:10;" d="M 264.75 147.128906 L 252.96875 138.964844 "/>
<path style="fill:none;stroke-width:1.2;stroke-linecap:butt;stroke-linejoin:miter;stroke:rgb(0%,0%,0%);stroke-opacity:1;stroke-miterlimit:10;" d="M 252.96875 138.964844 L 241.1875 130.796875 "/>
<path style=" stroke:none;fill-rule:nonzero;fill:rgb(100%,100%,100%);fill-opacity:1;" d="M 259.75 140.628906 L 270.75 140.628906 L 270.75 153.628906 L 259.75 153.628906 Z M 259.75 140.628906 "/>
<g style="fill:rgb(0%,80%,0%);fill-opacity:1;">
  <use xlink:href="#glyph0-1" x="259.75" y="150.530273"/>
  <use xlink:href="#glyph0-2" x="267.201172" y="150.530273"/>
</g>
<path style="fill:none;stroke-width:1.2;stroke-linecap:butt;stroke-linejoin:miter;stroke:rgb(0%,0%,0%);stroke-opacity:1;stroke-miterlimit:10;" d="M 241.1875 130.796875 L 215.261719 143.035156 "/>
<path style="fill:none;stroke-width:1.2;stroke-linecap:butt;stroke-linejoin:miter;stroke:rgb(0%,0%,0%);stroke-opacity:1;stroke-miterlimit:10;" d="M 235.714844 125.921875 L 214.972656 135.710938 "/>
<path style="fill:none;stroke-width:1.2;stroke-linecap:butt;stroke-linejoin:miter;stroke:rgb(0%,0%,0%);stroke-opacity:1;stroke-miterlimit:10;" d="M 243.550781 102.222656 L 241.1875 130.796875 "/>
<path style="fill:none;stroke-width:1.2;stroke-linecap:butt;stroke-linejoin:miter;stroke:rgb(0%,0%,0%);stroke-opacity:1;stroke-miterlimit:10;" d="M 215.261719 143.035156 L 191.699219 126.699219 "/>
<path style="fill:none;stroke-width:1.2;stroke-linecap:butt;stroke-linejoin:miter;stroke:rgb(0%,0%,0%);stroke-opacity:1;stroke-miterlimit:10;" d="M 191.699219 126.699219 L 194.0625 98.128906 "/>
<path style="fill:none;stroke-width:1.2;stroke-linecap:butt;stroke-linejoin:miter;stroke:rgb(0%,0%,0%);stroke-opacity:1;stroke-miterlimit:10;" d="M 198.660156 124.398438 L 200.550781 101.542969 "/>
<path style="fill:none;stroke-width:1.2;stroke-linecap:butt;stroke-linejoin:miter;stroke:rgb(0%,0%,0%);stroke-opacity:1;stroke-miterlimit:10;" d="M 191.699219 126.699219 L 165.773438 138.941406 "/>
<path style="fill:none;stroke-width:1.2;stroke-linecap:butt;stroke-linejoin:miter;stroke:rgb(0%,0%,0%);stroke-opacity:1;stroke-miterlimit:10;" d="M 194.0625 98.128906 L 219.988281 85.890625 "/>
<path style="fill:none;stroke-width:1.2;stroke-linecap:butt;stroke-linejoin:miter;stroke:rgb(0%,0%,0%);stroke-opacity:1;stroke-miterlimit:10;" d="M 219.988281 85.890625 L 243.550781 102.222656 "/>
<path style="fill:none;stroke-width:1.2;stroke-linecap:butt;stroke-linejoin:miter;stroke:rgb(0%,0%,0%);stroke-opacity:1;stroke-miterlimit:10;" d="M 218.503906 93.066406 L 237.351562 106.136719 "/>
<path style="fill:none;stroke-width:1.2;stroke-linecap:butt;stroke-linejoin:miter;stroke:rgb(0%,0%,0%);stroke-opacity:1;stroke-miterlimit:10;" d="M 165.773438 138.941406 L 160.433594 167.109375 "/>
<path style="fill:none;stroke-width:1.2;stroke-linecap:butt;stroke-linejoin:miter;stroke:rgb(0%,0%,0%);stroke-opacity:1;stroke-miterlimit:10;" d="M 140.632812 125.15625 L 165.773438 138.941406 "/>
<path style="fill:none;stroke-width:1.2;stroke-linecap:butt;stroke-linejoin:miter;stroke:rgb(0%,0%,0%);stroke-opacity:1;stroke-miterlimit:10;" d="M 139.902344 132.453125 L 160.015625 143.476562 "/>
<path style="fill:none;stroke-width:1.2;stroke-linecap:butt;stroke-linejoin:miter;stroke:rgb(0%,0%,0%);stroke-opacity:1;stroke-miterlimit:10;" d="M 160.433594 167.109375 L 131.996094 170.734375 "/>
<path style="fill:none;stroke-width:1.2;stroke-linecap:butt;stroke-linejoin:miter;stroke:rgb(0%,0%,0%);stroke-opacity:1;stroke-miterlimit:10;" d="M 158.445312 174.164062 L 135.691406 177.066406 "/>
<path style="fill:none;stroke-width:1.2;stroke-linecap:butt;stroke-linejoin:miter;stroke:rgb(0%,0%,0%);stroke-opacity:1;stroke-miterlimit:10;" d="M 177.796875 189.925781 L 160.433594 167.109375 "/>
<path style="fill:none;stroke-width:1.2;stroke-linecap:butt;stroke-linejoin:miter;stroke:rgb(0%,0%,0%);stroke-opacity:1;stroke-miterlimit:10;" d="M 131.996094 170.734375 L 125.875 157.773438 "/>
<path style="fill:none;stroke-width:1.2;stroke-linecap:butt;stroke-linejoin:miter;stroke:rgb(0%,0%,100%);stroke-opacity:1;stroke-miterlimit:10;" d="M 125.875 157.773438 L 119.757812 144.808594 "/>
<path style="fill:none;stroke-width:1.2;stroke-linecap:butt;stroke-linejoin:miter;stroke:rgb(0%,0%,0%);stroke-opacity:1;stroke-miterlimit:10;" d="M 131.996094 170.734375 L 120.917969 197.179688 "/>
<path style="fill:none;stroke-width:1.2;stroke-linecap:butt;stroke-linejoin:miter;stroke:rgb(0%,0%,100%);stroke-opacity:1;stroke-miterlimit:10;" d="M 119.757812 144.808594 L 130.195312 134.984375 "/>
<path style="fill:none;stroke-width:1.2;stroke-linecap:butt;stroke-linejoin:miter;stroke:rgb(0%,0%,0%);stroke-opacity:1;stroke-miterlimit:10;" d="M 130.195312 134.984375 L 140.632812 125.15625 "/>
<path style="fill:none;stroke-width:1.2;stroke-linecap:butt;stroke-linejoin:miter;stroke:rgb(0%,0%,100%);stroke-opacity:1;stroke-miterlimit:10;" d="M 119.757812 144.808594 L 105.671875 142.140625 "/>
<path style="fill:none;stroke-width:1.2;stroke-linecap:butt;stroke-linejoin:miter;stroke:rgb(0%,0%,0%);stroke-opacity:1;stroke-miterlimit:10;" d="M 105.671875 142.140625 L 91.585938 139.472656 "/>
<path style=" stroke:none;fill-rule:nonzero;fill:rgb(100%,100%,100%);fill-opacity:1;" d="M 115.757812 138.308594 L 123.757812 138.308594 L 123.757812 151.308594 L 115.757812 151.308594 Z M 115.757812 138.308594 "/>
<g style="fill:rgb(0%,0%,100%);fill-opacity:1;">
  <use xlink:href="#glyph0-3" x="115.757812" y="148.209961"/>
</g>
<path style="fill:none;stroke-width:1.2;stroke-linecap:butt;stroke-linejoin:miter;stroke:rgb(0%,0%,0%);stroke-opacity:1;stroke-miterlimit:10;" d="M 91.585938 139.472656 L 86.855469 125.9375 "/>
<path style="fill:none;stroke-width:1.2;stroke-linecap:butt;stroke-linejoin:miter;stroke:rgb(0%,0%,100%);stroke-opacity:1;stroke-miterlimit:10;" d="M 86.855469 125.9375 L 82.125 112.40625 "/>
<path style="fill:none;stroke-width:1.2;stroke-linecap:butt;stroke-linejoin:miter;stroke:rgb(0%,0%,0%);stroke-opacity:1;stroke-miterlimit:10;" d="M 84.273438 138.992188 L 80.488281 128.164062 "/>
<path style="fill:none;stroke-width:1.2;stroke-linecap:butt;stroke-linejoin:miter;stroke:rgb(0%,0%,100%);stroke-opacity:1;stroke-miterlimit:10;" d="M 80.488281 128.164062 L 76.703125 117.339844 "/>
<path style="fill:none;stroke-width:1.2;stroke-linecap:butt;stroke-linejoin:miter;stroke:rgb(0%,0%,0%);stroke-opacity:1;stroke-miterlimit:10;" d="M 72.878906 161.195312 L 91.585938 139.472656 "/>
<path style="fill:none;stroke-width:1.2;stroke-linecap:butt;stroke-linejoin:miter;stroke:rgb(0%,0%,100%);stroke-opacity:1;stroke-miterlimit:10;" d="M 82.125 112.40625 L 68.042969 109.738281 "/>
<path style="fill:none;stroke-width:1.2;stroke-linecap:butt;stroke-linejoin:miter;stroke:rgb(0%,0%,0%);stroke-opacity:1;stroke-miterlimit:10;" d="M 68.042969 109.738281 L 53.957031 107.070312 "/>
<path style=" stroke:none;fill-rule:nonzero;fill:rgb(100%,100%,100%);fill-opacity:1;" d="M 78.125 105.90625 L 86.125 105.90625 L 86.125 118.90625 L 78.125 118.90625 Z M 78.125 105.90625 "/>
<g style="fill:rgb(0%,0%,100%);fill-opacity:1;">
  <use xlink:href="#glyph0-3" x="78.125" y="115.807617"/>
</g>
<path style="fill:none;stroke-width:1.2;stroke-linecap:butt;stroke-linejoin:miter;stroke:rgb(0%,0%,0%);stroke-opacity:1;stroke-miterlimit:10;" d="M 53.957031 107.070312 L 44.605469 117.933594 "/>
<path style="fill:none;stroke-width:1.2;stroke-linecap:butt;stroke-linejoin:miter;stroke:rgb(0%,0%,100%);stroke-opacity:1;stroke-miterlimit:10;" d="M 44.605469 117.933594 L 35.25 128.792969 "/>
<path style="fill:none;stroke-width:1.2;stroke-linecap:butt;stroke-linejoin:miter;stroke:rgb(0%,0%,0%);stroke-opacity:1;stroke-miterlimit:10;" d="M 57.199219 113.644531 L 49.714844 122.332031 "/>
<path style="fill:none;stroke-width:1.2;stroke-linecap:butt;stroke-linejoin:miter;stroke:rgb(0%,0%,100%);stroke-opacity:1;stroke-miterlimit:10;" d="M 49.714844 122.332031 L 42.234375 131.023438 "/>
<path style="fill:none;stroke-width:1.2;stroke-linecap:butt;stroke-linejoin:miter;stroke:rgb(0%,0%,0%);stroke-opacity:1;stroke-miterlimit:10;" d="M 53.957031 107.070312 L 49.226562 93.535156 "/>
<path style="fill:none;stroke-width:1.2;stroke-linecap:butt;stroke-linejoin:miter;stroke:rgb(0%,0%,100%);stroke-opacity:1;stroke-miterlimit:10;" d="M 49.226562 93.535156 L 44.496094 80.003906 "/>
<path style="fill:none;stroke-width:1.2;stroke-linecap:butt;stroke-linejoin:miter;stroke:rgb(0%,0%,100%);stroke-opacity:1;stroke-miterlimit:10;" d="M 35.25 128.792969 L 39.980469 142.328125 "/>
<path style="fill:none;stroke-width:1.2;stroke-linecap:butt;stroke-linejoin:miter;stroke:rgb(0%,0%,0%);stroke-opacity:1;stroke-miterlimit:10;" d="M 39.980469 142.328125 L 44.710938 155.859375 "/>
<path style=" stroke:none;fill-rule:nonzero;fill:rgb(100%,100%,100%);fill-opacity:1;" d="M 31.25 122.292969 L 39.25 122.292969 L 39.25 135.292969 L 31.25 135.292969 Z M 31.25 122.292969 "/>
<g style="fill:rgb(0%,0%,100%);fill-opacity:1;">
  <use xlink:href="#glyph0-3" x="31.25" y="132.194336"/>
</g>
<path style="fill:none;stroke-width:1.2;stroke-linecap:butt;stroke-linejoin:miter;stroke:rgb(0%,0%,0%);stroke-opacity:1;stroke-miterlimit:10;" d="M 44.710938 155.859375 L 72.878906 161.195312 "/>
<path style="fill:none;stroke-width:1.2;stroke-linecap:butt;stroke-linejoin:miter;stroke:rgb(0%,0%,0%);stroke-opacity:1;stroke-miterlimit:10;" d="M 48.785156 149.765625 L 71.320312 154.035156 "/>
<path style=" stroke:none;fill-rule:nonzero;fill:rgb(100%,100%,100%);fill-opacity:1;" d="M 22.496094 71.503906 L 44.496094 71.503906 L 44.496094 88.503906 L 22.496094 88.503906 Z M 22.496094 71.503906 "/>
<g style="fill:rgb(0%,0%,100%);fill-opacity:1;">
  <use xlink:href="#glyph0-4" x="22.496094" y="81.405273"/>
</g>
<g style="fill:rgb(0%,0%,100%);fill-opacity:1;">
  <use xlink:href="#glyph1-1" x="30.520508" y="86.288086"/>
</g>
<g style="fill:rgb(0%,0%,100%);fill-opacity:1;">
  <use xlink:href="#glyph0-3" x="36.176758" y="81.405273"/>
</g>
<path style="fill:none;stroke-width:1.2;stroke-linecap:butt;stroke-linejoin:miter;stroke:rgb(0%,0%,0%);stroke-opacity:1;stroke-miterlimit:10;" d="M 120.917969 197.179688 L 138.277344 219.996094 "/>
<path style="fill:none;stroke-width:1.2;stroke-linecap:butt;stroke-linejoin:miter;stroke:rgb(0%,0%,0%);stroke-opacity:1;stroke-miterlimit:10;" d="M 128.019531 195.375 L 141.910156 213.628906 "/>
<path style="fill:none;stroke-width:1.2;stroke-linecap:butt;stroke-linejoin:miter;stroke:rgb(0%,0%,0%);stroke-opacity:1;stroke-miterlimit:10;" d="M 138.277344 219.996094 L 152.496094 218.179688 "/>
<path style="fill:none;stroke-width:1.2;stroke-linecap:butt;stroke-linejoin:miter;stroke:rgb(0%,0%,100%);stroke-opacity:1;stroke-miterlimit:10;" d="M 152.496094 218.179688 L 166.71875 216.367188 "/>
<path style="fill:none;stroke-width:1.2;stroke-linecap:butt;stroke-linejoin:miter;stroke:rgb(0%,0%,100%);stroke-opacity:1;stroke-miterlimit:10;" d="M 166.71875 216.367188 L 172.257812 203.144531 "/>
<path style="fill:none;stroke-width:1.2;stroke-linecap:butt;stroke-linejoin:miter;stroke:rgb(0%,0%,0%);stroke-opacity:1;stroke-miterlimit:10;" d="M 172.257812 203.144531 L 177.796875 189.925781 "/>
<path style="fill:none;stroke-width:1.2;stroke-linecap:butt;stroke-linejoin:miter;stroke:rgb(0%,0%,100%);stroke-opacity:1;stroke-miterlimit:10;" d="M 161.601562 211.117188 L 166.035156 200.539062 "/>
<path style="fill:none;stroke-width:1.2;stroke-linecap:butt;stroke-linejoin:miter;stroke:rgb(0%,0%,0%);stroke-opacity:1;stroke-miterlimit:10;" d="M 166.035156 200.539062 L 170.464844 189.960938 "/>
<path style=" stroke:none;fill-rule:nonzero;fill:rgb(100%,100%,100%);fill-opacity:1;" d="M 162.71875 209.867188 L 170.71875 209.867188 L 170.71875 222.867188 L 162.71875 222.867188 Z M 162.71875 209.867188 "/>
<g style="fill:rgb(0%,0%,100%);fill-opacity:1;">
  <use xlink:href="#glyph0-3" x="162.71875" y="219.768555"/>
</g>
</g>
</svg>

<svg xmlns="http://www.w3.org/2000/svg" xmlns:xlink="http://www.w3.org/1999/xlink" width="300pt" height="300pt" viewBox="0 0 300 300"><defs><symbol overflow="visible"><path d="M.547 1.938V-7.75h5.5v9.688zm.625-.61h4.266v-8.47H1.171zm0 0"/></symbol><symbol overflow="visible" id="a"><path d="M7.078-7.406v1.156c-.367-.344-.758-.598-1.172-.766-.406-.164-.843-.25-1.312-.25-.918 0-1.62.282-2.11.844-.48.555-.718 1.36-.718 2.422 0 1.055.238 1.86.718 2.422.49.562 1.192.844 2.11.844.468 0 .906-.082 1.312-.25.414-.164.805-.422 1.172-.766v1.125c-.375.262-.777.46-1.203.594-.418.124-.867.186-1.344.186-1.21 0-2.163-.367-2.858-1.11C.972-1.703.625-2.718.625-4c0-1.29.348-2.305 1.047-3.047.695-.75 1.648-1.125 2.86-1.125.476 0 .93.07 1.36.203.424.126.82.314 1.186.564zm0 0"/></symbol><symbol overflow="visible" id="b"><path d="M1.03-8.36h1V0h-1zm0 0"/></symbol><symbol overflow="visible" id="c"><path d="M1.078-8.016h1.47l3.546 6.704v-6.704h1.062V0H5.688L2.124-6.703V0H1.078zm0 0"/></symbol><symbol overflow="visible" id="d"><path d="M1.078-8.016h1.094v3.282H6.11v-3.282h1.077V0H6.11v-3.813H2.17V0H1.078zm0 0"/></symbol><symbol overflow="visible"><path d="M.453 1.594v-7.938h4.5v7.938zm.5-.5h3.5v-6.938h-3.5zm0 0"/></symbol><symbol overflow="visible" id="e"><path d="M1.734-.75h3.094V0H.656v-.75c.344-.344.8-.805 1.375-1.39.583-.594.954-.973 1.11-1.14.282-.322.473-.595.58-.814.112-.226.17-.445.17-.656 0-.352-.12-.64-.36-.86-.24-.218-.557-.327-.952-.327-.28 0-.578.054-.89.156-.305.093-.633.24-.985.436v-.906c.352-.133.688-.238 1-.313.313-.082.598-.125.86-.125.675 0 1.218.172 1.624.516.407.344.61.797.61 1.36 0 .273-.055.53-.156.78-.105.243-.288.524-.546.845-.074.085-.31.328-.703.734-.398.406-.95.976-1.656 1.703zm0 0"/></symbol></defs><g><path fill="#fff" d="M0 0h300v300H0z"/><path d="M264.75 147.13l-11.78-8.165" stroke-width="1.2" stroke="#0c0" stroke-miterlimit="10" fill="none"/><path d="M252.97 138.965l-11.782-8.168" stroke-width="1.2" stroke="#000" stroke-miterlimit="10" fill="none"/><path d="M259.75 140.63h11v13h-11zm0 0" fill="#fff"/><g fill="#0c0"><use xlink:href="#a" x="259.75" y="150.53"/><use xlink:href="#b" x="267.201" y="150.53"/></g><path d="M241.188 130.797l-25.926 12.238M235.715 125.922l-20.742 9.79M243.55 102.223l-2.363 28.574M215.262 143.035L191.7 126.7M191.7 126.7l2.363-28.57M198.66 124.398l1.89-22.855M191.7 126.7l-25.927 12.24M194.063 98.13l25.925-12.24M219.988 85.89l23.563 16.333M218.504 93.066l18.848 13.07M165.773 138.94l-5.34 28.17M140.633 125.156l25.14 13.785M139.902 132.453l20.114 11.024M160.434 167.11l-28.438 3.624M158.445 174.164l-22.754 2.902M177.797 189.926l-17.363-22.817M131.996 170.734l-6.12-12.96" stroke-width="1.2" stroke="#000" stroke-miterlimit="10" fill="none"/><path d="M125.875 157.773l-6.117-12.964" stroke-width="1.2" stroke="#00f" stroke-miterlimit="10" fill="none"/><path d="M131.996 170.734l-11.078 26.446" stroke-width="1.2" stroke="#000" stroke-miterlimit="10" fill="none"/><path d="M119.758 144.81l10.437-9.826" stroke-width="1.2" stroke="#00f" stroke-miterlimit="10" fill="none"/><path d="M130.195 134.984l10.438-9.828" stroke-width="1.2" stroke="#000" stroke-miterlimit="10" fill="none"/><path d="M119.758 144.81l-14.086-2.67" stroke-width="1.2" stroke="#00f" stroke-miterlimit="10" fill="none"/><path d="M105.672 142.14l-14.086-2.667" stroke-width="1.2" stroke="#000" stroke-miterlimit="10" fill="none"/><path d="M115.758 138.31h8v13h-8zm0 0" fill="#fff"/><use xlink:href="#c" x="115.758" y="148.21" fill="#00f"/><path d="M91.586 139.473l-4.73-13.536" stroke-width="1.2" stroke="#000" stroke-miterlimit="10" fill="none"/><path d="M86.855 125.938l-4.73-13.532" stroke-width="1.2" stroke="#00f" stroke-miterlimit="10" fill="none"/><path d="M84.273 138.992l-3.785-10.828" stroke-width="1.2" stroke="#000" stroke-miterlimit="10" fill="none"/><path d="M80.488 128.164l-3.785-10.824" stroke-width="1.2" stroke="#00f" stroke-miterlimit="10" fill="none"/><path d="M72.88 161.195l18.706-21.722" stroke-width="1.2" stroke="#000" stroke-miterlimit="10" fill="none"/><path d="M82.125 112.406l-14.082-2.668" stroke-width="1.2" stroke="#00f" stroke-miterlimit="10" fill="none"/><path d="M68.043 109.738l-14.086-2.668" stroke-width="1.2" stroke="#000" stroke-miterlimit="10" fill="none"/><path d="M78.125 105.906h8v13h-8zm0 0" fill="#fff"/><use xlink:href="#c" x="78.125" y="115.808" fill="#00f"/><path d="M53.957 107.07l-9.352 10.864" stroke-width="1.2" stroke="#000" stroke-miterlimit="10" fill="none"/><path d="M44.605 117.934l-9.355 10.86" stroke-width="1.2" stroke="#00f" stroke-miterlimit="10" fill="none"/><path d="M57.2 113.645l-7.485 8.687" stroke-width="1.2" stroke="#000" stroke-miterlimit="10" fill="none"/><path d="M49.715 122.332l-7.48 8.69" stroke-width="1.2" stroke="#00f" stroke-miterlimit="10" fill="none"/><path d="M53.957 107.07l-4.73-13.535" stroke-width="1.2" stroke="#000" stroke-miterlimit="10" fill="none"/><path d="M49.227 93.535l-4.73-13.53M35.25 128.793l4.73 13.535" stroke-width="1.2" stroke="#00f" stroke-miterlimit="10" fill="none"/><path d="M39.98 142.328l4.73 13.53" stroke-width="1.2" stroke="#000" stroke-miterlimit="10" fill="none"/><path d="M31.25 122.293h8v13h-8zm0 0" fill="#fff"/><use xlink:href="#c" x="31.25" y="132.194" fill="#00f"/><path d="M44.71 155.86l28.17 5.335M48.785 149.766l22.535 4.27" stroke-width="1.2" stroke="#000" stroke-miterlimit="10" fill="none"/><path d="M22.496 71.504h22v17h-22zm0 0" fill="#fff"/><use xlink:href="#d" x="22.496" y="81.405" fill="#00f"/><use xlink:href="#e" x="30.521" y="86.288" fill="#00f"/><use xlink:href="#c" x="36.177" y="81.405" fill="#00f"/><path d="M120.918 197.18l17.36 22.816M128.02 195.375l13.89 18.254M138.277 219.996l14.22-1.816" stroke-width="1.2" stroke="#000" stroke-miterlimit="10" fill="none"/><path d="M152.496 218.18l14.223-1.813M166.72 216.367l5.538-13.222" stroke-width="1.2" stroke="#00f" stroke-miterlimit="10" fill="none"/><path d="M172.258 203.145l5.54-13.22" stroke-width="1.2" stroke="#000" stroke-miterlimit="10" fill="none"/><path d="M161.602 211.117l4.433-10.578" stroke-width="1.2" stroke="#00f" stroke-miterlimit="10" fill="none"/><path d="M166.035 200.54l4.43-10.58" stroke-width="1.2" stroke="#000" stroke-miterlimit="10" fill="none"/><path d="M162.72 209.867h8v13h-8zm0 0" fill="#fff"/><use xlink:href="#c" x="162.719" y="219.769" fill="#00f"/></g></svg>
